packages/foundations/assets/icons/functional/images/human/restricted_mobility_toilet_32.svg

<svg width="32" height="32" viewBox="0 0 32 32" fill="none" xmlns="http://www.w3.org/2000/svg">
<g clip-path="url(#clip0_185_1149)">
<path fill-rule="evenodd" clip-rule="evenodd" d="M4.00598 22.662C4.00598 21.2951 4.48558 19.9282 5.42088 18.849C5.63668 18.6092 5.90048 18.5133 6.16428 18.5133C6.76378 18.5133 7.17148 18.9689 7.17148 19.5205C7.17148 19.7363 7.09948 19.9521 6.95558 20.144C6.35608 20.8394 5.99638 21.7507 5.99638 22.662C5.99638 24.7723 7.67498 26.5133 9.78538 26.5133C11.0563 26.5133 12.2314 25.9234 12.9748 24.9162C13.1906 24.6284 13.5024 24.4845 13.7902 24.4845C14.3177 24.4845 14.8213 24.8922 14.8213 25.4917C14.8213 25.7075 14.7494 25.9234 14.6055 26.0912C13.4784 27.602 11.7278 28.5133 9.78538 28.5133C6.66788 28.5133 4.00598 25.9474 4.00598 22.662ZM7.50718 15.5157C7.50718 14.9641 7.96278 14.5085 8.51438 14.5085H9.23378C10.3849 14.5085 11.3921 15.132 11.7278 16.1872L11.8237 16.5133H15.253C15.8045 16.5133 16.2602 16.9545 16.2602 17.5061C16.2602 18.0577 15.8045 18.5133 15.253 18.5133H12.4232L13.0228 20.5133H16.524C16.9556 20.5133 17.2914 20.7675 17.4592 21.1752L19.6415 26.355C19.6894 26.4509 19.7134 26.5709 19.7134 26.6908C19.7134 27.1704 19.3297 27.674 18.7062 27.674C18.2746 27.674 17.9388 27.4342 17.771 27.0265L15.8285 22.5181H12.2794C11.8477 22.5181 11.44 22.2303 11.3201 21.7987L9.88128 16.9306C9.78538 16.6188 9.66548 16.4989 9.23378 16.4989H8.51438C7.96278 16.4989 7.50718 16.0673 7.50718 15.5157ZM7.50718 10.5277C7.50718 9.42458 8.41848 8.51328 9.52158 8.51328C10.6247 8.51328 11.512 9.42458 11.512 10.5277C11.512 11.6308 10.6247 12.5181 9.52158 12.5181C8.41848 12.5181 7.50718 11.6308 7.50718 10.5277ZM13.8209 4.40015C13.8209 3.87415 14.2915 3.54197 14.7344 3.54197C15.0943 3.54197 15.4678 3.76023 15.5649 4.20633L16.3329 7.73836L17.1981 4.1787C17.2996 3.76112 17.6964 3.54197 18.0562 3.54197C18.4161 3.54197 18.8132 3.75288 18.9144 4.1787L19.7607 7.75147L20.5199 4.20633C20.6214 3.73375 20.9906 3.54197 21.3504 3.54197C21.8209 3.54197 22.2638 3.87415 22.2638 4.40015C22.2638 4.48324 22.2583 4.56456 22.2362 4.64924L20.6307 10.8223C20.5158 11.2642 20.1324 11.4591 19.7726 11.4591C19.4127 11.4591 19.0387 11.2616 18.9144 10.8223L18.0286 7.69433L17.1427 10.8223C17.0163 11.2688 16.6445 11.4591 16.2846 11.4591C15.9247 11.4591 15.54 11.2368 15.4265 10.7947L13.8486 4.64924C13.8269 4.56447 13.8209 4.48324 13.8209 4.40015ZM22.6515 7.52815C22.6515 3.87415 24.8106 3.48669 25.7518 3.48669C26.3055 3.48669 26.8867 3.59742 27.4127 3.84651C27.8002 4.0126 27.9664 4.31706 27.9664 4.6216C27.9664 5.09215 27.6065 5.56279 27.1082 5.56279C26.9975 5.56279 26.8591 5.53506 26.7484 5.47978C26.4438 5.34133 26.1393 5.25833 25.8348 5.25833C25.4473 5.25833 24.4231 5.25833 24.4231 7.52815C24.4231 9.71506 25.3366 9.71506 25.8348 9.71506C26.167 9.68742 26.4992 9.60433 26.8037 9.4936C26.9144 9.46597 27.0251 9.43824 27.1358 9.43824C27.6342 9.43824 27.994 9.90887 27.994 10.3794C27.994 10.7116 27.8279 11.0161 27.4127 11.1822C26.8867 11.3483 26.3331 11.4591 25.7795 11.4867C24.6168 11.4867 22.6515 10.9607 22.6515 7.52815Z" fill="#1A1C1F"/>
</g>
<defs>
<clipPath id="clip0_185_1149">
<rect width="32" height="32" fill="white"/>
</clipPath>
</defs>
</svg>

<svg xmlns="http://www.w3.org/2000/svg" width="32" height="32" fill="none"><g clip-path="url(#a)"><path fill="#1A1C1F" fill-rule="evenodd" d="M4.006 22.662c0-1.367.48-2.734 1.415-3.813a.97.97 0 0 1 .743-.336c.6 0 1.007.456 1.007 1.007 0 .216-.072.432-.215.624-.6.695-.96 1.607-.96 2.518 0 2.11 1.679 3.851 3.79 3.851 1.27 0 2.445-.59 3.189-1.597.216-.288.527-.431.815-.431.528 0 1.031.407 1.031 1.007a.92.92 0 0 1-.216.6 5.97 5.97 0 0 1-4.82 2.421c-3.117 0-5.779-2.566-5.779-5.851m3.501-7.146c0-.552.456-1.008 1.007-1.008h.72c1.15 0 2.158.624 2.494 1.68l.096.325h3.429c.552 0 1.007.441 1.007.993s-.456 1.007-1.007 1.007h-2.83l.6 2h3.501c.432 0 .767.254.935.662l2.183 5.18a.8.8 0 0 1 .071.336c0 .48-.383.983-1.007.983-.431 0-.767-.24-.935-.648l-1.943-4.508H12.28a1 1 0 0 1-.959-.72l-1.439-4.867c-.096-.312-.216-.432-.647-.432h-.72a.993.993 0 0 1-1.007-.983m0-4.988c0-1.103.911-2.015 2.015-2.015 1.103 0 1.99.912 1.99 2.015s-.887 1.99-1.99 1.99c-1.104 0-2.015-.887-2.015-1.99M13.821 4.4c0-.526.47-.858.913-.858a.83.83 0 0 1 .83.664l.769 3.532.865-3.56c.102-.417.498-.636.858-.636s.757.21.858.637l.847 3.572.759-3.545c.101-.472.47-.664.83-.664.47 0 .914.332.914.858a1 1 0 0 1-.028.25l-1.605 6.172c-.115.442-.499.637-.858.637-.36 0-.734-.197-.859-.637l-.885-3.128-.886 3.128c-.127.447-.498.637-.858.637a.88.88 0 0 1-.858-.664l-1.578-6.146a1 1 0 0 1-.028-.249m8.83 3.128c0-3.654 2.16-4.041 3.1-4.041.554 0 1.136.11 1.662.36.387.166.553.47.553.775 0 .47-.36.94-.858.94a.85.85 0 0 1-.36-.082 2.2 2.2 0 0 0-.913-.222c-.388 0-1.412 0-1.412 2.27 0 2.187.914 2.187 1.412 2.187.332-.028.664-.11.969-.221.11-.028.221-.056.332-.056.498 0 .858.47.858.941 0 .333-.166.637-.581.803a6.5 6.5 0 0 1-1.634.305c-1.162 0-3.128-.526-3.128-3.959" clip-rule="evenodd"/></g><defs><clipPath id="a"><path fill="#fff" d="M0 0h32v32H0z"/></clipPath></defs></svg>
